Amon/img/header/instagram.svg

<svg width="20" height="20" viewBox="0 0 20 20" fill="none" xmlns="http://www.w3.org/2000/svg">
<path fill-rule="evenodd" clip-rule="evenodd" d="M5.87727 0.06C6.94364 0.0109091 7.28364 0 10 0C12.7164 0 13.0564 0.0118182 14.1218 0.06C15.1873 0.108182 15.9145 0.278182 16.5509 0.524545C17.2173 0.776364 17.8218 1.17 18.3218 1.67909C18.8309 2.17818 19.2236 2.78182 19.4745 3.44909C19.7218 4.08545 19.8909 4.81273 19.94 5.87636C19.9891 6.94455 20 7.28455 20 10C20 12.7164 19.9882 13.0564 19.94 14.1227C19.8918 15.1864 19.7218 15.9136 19.4745 16.55C19.2236 17.2174 18.8303 17.822 18.3218 18.3218C17.8218 18.8309 17.2173 19.2236 16.5509 19.4745C15.9145 19.7218 15.1873 19.8909 14.1236 19.94C13.0564 19.9891 12.7164 20 10 20C7.28364 20 6.94364 19.9882 5.87727 19.94C4.81364 19.8918 4.08636 19.7218 3.45 19.4745C2.78266 19.2236 2.17802 18.8302 1.67818 18.3218C1.16944 17.8224 0.775741 17.2181 0.524545 16.5509C0.278182 15.9145 0.109091 15.1873 0.06 14.1236C0.0109091 13.0555 0 12.7155 0 10C0 7.28364 0.0118182 6.94364 0.06 5.87818C0.108182 4.81273 0.278182 4.08545 0.524545 3.44909C0.776112 2.78189 1.17011 2.17756 1.67909 1.67818C2.17822 1.16955 2.78225 0.775858 3.44909 0.524545C4.08545 0.278182 4.81273 0.109091 5.87636 0.06H5.87727ZM14.0409 1.86C12.9864 1.81182 12.67 1.80182 10 1.80182C7.33 1.80182 7.01364 1.81182 5.95909 1.86C4.98364 1.90455 4.45455 2.06727 4.10182 2.20455C3.63545 2.38636 3.30182 2.60182 2.95182 2.95182C2.62004 3.27459 2.36471 3.66753 2.20455 4.10182C2.06727 4.45455 1.90455 4.98364 1.86 5.95909C1.81182 7.01364 1.80182 7.33 1.80182 10C1.80182 12.67 1.81182 12.9864 1.86 14.0409C1.90455 15.0164 2.06727 15.5455 2.20455 15.8982C2.36455 16.3318 2.62 16.7255 2.95182 17.0482C3.27455 17.38 3.66818 17.6355 4.10182 17.7955C4.45455 17.9327 4.98364 18.0955 5.95909 18.14C7.01364 18.1882 7.32909 18.1982 10 18.1982C12.6709 18.1982 12.9864 18.1882 14.0409 18.14C15.0164 18.0955 15.5455 17.9327 15.8982 17.7955C16.3645 17.6136 16.6982 17.3982 17.0482 17.0482C17.38 16.7255 17.6355 16.3318 17.7955 15.8982C17.9327 15.5455 18.0955 15.0164 18.14 14.0409C18.1882 12.9864 18.1982 12.67 18.1982 10C18.1982 7.33 18.1882 7.01364 18.14 5.95909C18.0955 4.98364 17.9327 4.45455 17.7955 4.10182C17.6136 3.63545 17.3982 3.30182 17.0482 2.95182C16.7254 2.62006 16.3325 2.36474 15.8982 2.20455C15.5455 2.06727 15.0164 1.90455 14.0409 1.86ZM8.72273 13.0827C9.43605 13.3797 10.2303 13.4197 10.9699 13.1961C11.7095 12.9725 12.3485 12.499 12.7778 11.8566C13.2071 11.2142 13.4001 10.4426 13.3237 9.67373C13.2473 8.90485 12.9064 8.18634 12.3591 7.64091C12.0102 7.29225 11.5884 7.02528 11.1239 6.85922C10.6595 6.69317 10.164 6.63215 9.67318 6.68056C9.18233 6.72897 8.70832 6.88562 8.28528 7.13921C7.86223 7.3928 7.50068 7.73704 7.22664 8.14714C6.9526 8.55723 6.7729 9.02299 6.70047 9.51087C6.62804 9.99876 6.66468 10.4966 6.80776 10.9687C6.95084 11.4407 7.1968 11.8751 7.52793 12.2407C7.85906 12.6062 8.26711 12.8938 8.72273 13.0827ZM6.36545 6.36545C6.84275 5.88816 7.40938 5.50955 8.033 5.25124C8.65662 4.99293 9.325 4.85998 10 4.85998C10.675 4.85998 11.3434 4.99293 11.967 5.25124C12.5906 5.50955 13.1573 5.88816 13.6345 6.36545C14.1118 6.84275 14.4905 7.40938 14.7488 8.033C15.0071 8.65662 15.14 9.325 15.14 10C15.14 10.675 15.0071 11.3434 14.7488 11.967C14.4905 12.5906 14.1118 13.1573 13.6345 13.6345C12.6706 14.5985 11.3632 15.14 10 15.14C8.63678 15.14 7.3294 14.5985 6.36545 13.6345C5.40151 12.6706 4.85998 11.3632 4.85998 10C4.85998 8.63678 5.40151 7.3294 6.36545 6.36545ZM16.28 5.62545C16.3983 5.51388 16.493 5.37971 16.5585 5.23089C16.624 5.08206 16.6589 4.92161 16.6613 4.75903C16.6637 4.59645 16.6334 4.43504 16.5723 4.28437C16.5111 4.1337 16.4204 3.99683 16.3054 3.88185C16.1904 3.76688 16.0536 3.67614 15.9029 3.61502C15.7522 3.55389 15.5908 3.52361 15.4282 3.52598C15.2657 3.52835 15.1052 3.56332 14.9564 3.62881C14.8076 3.69431 14.6734 3.789 14.5618 3.90727C14.3448 4.1373 14.226 4.44284 14.2306 4.75903C14.2352 5.07522 14.3629 5.37716 14.5865 5.60077C14.8101 5.82437 15.1121 5.95203 15.4282 5.95664C15.7444 5.96125 16.05 5.84245 16.28 5.62545Z" fill="white"/>
</svg>

<svg width="20" height="20" fill="none" xmlns="http://www.w3.org/2000/svg"><path fill-rule="evenodd" clip-rule="evenodd" d="M5.877.06C6.944.01 7.284 0 10 0s3.056.012 4.122.06c1.065.048 1.793.218 2.429.465a4.92 4.92 0 011.77 1.154c.51.5.903 1.103 1.153 1.77.248.636.417 1.364.466 2.427.05 1.069.06 1.409.06 4.124 0 2.716-.012 3.056-.06 4.123-.048 1.063-.218 1.79-.466 2.427a4.904 4.904 0 01-1.152 1.772c-.5.509-1.105.902-1.771 1.152-.636.248-1.364.417-2.427.466-1.068.05-1.408.06-4.124.06-2.716 0-3.056-.012-4.123-.06-1.063-.048-1.79-.218-2.427-.466a4.906 4.906 0 01-1.772-1.152A4.902 4.902 0 01.525 16.55c-.247-.636-.416-1.364-.465-2.427C.01 13.055 0 12.715 0 10c0-2.716.012-3.056.06-4.122.048-1.065.218-1.793.465-2.429a4.906 4.906 0 011.154-1.77A4.902 4.902 0 013.45.524C4.085.278 4.813.109 5.876.06h.001zm8.164 1.8c-1.055-.048-1.371-.058-4.041-.058-2.67 0-2.986.01-4.04.058-.976.045-1.505.207-1.858.345a3.09 3.09 0 00-1.15.747 3.102 3.102 0 00-.747 1.15c-.138.353-.3.882-.345 1.857C1.812 7.014 1.802 7.33 1.802 10c0 2.67.01 2.986.058 4.04.045.976.207 1.506.345 1.858.16.434.415.828.747 1.15.323.332.716.588 1.15.748.353.137.882.3 1.857.344 1.055.048 1.37.058 4.041.058 2.67 0 2.986-.01 4.04-.058.976-.044 1.506-.207 1.858-.345.466-.181.8-.397 1.15-.747.332-.322.588-.716.748-1.15.137-.352.3-.882.344-1.857.048-1.055.058-1.371.058-4.041 0-2.67-.01-2.986-.058-4.04-.044-.976-.207-1.505-.345-1.858a3.106 3.106 0 00-.747-1.15 3.102 3.102 0 00-1.15-.747c-.352-.138-.882-.3-1.857-.345zM8.723 13.083a3.335 3.335 0 003.636-5.442 3.336 3.336 0 10-3.636 5.442zM6.365 6.365a5.14 5.14 0 117.27 7.27 5.14 5.14 0 01-7.27-7.27zm9.915-.74a1.215 1.215 0 10-1.668-1.768 1.215 1.215 0 001.668 1.768z" fill="#fff"/></svg>
